portfolio-htmlcssjs/img/ico_mail.svg

<svg fill="none" height="16" viewBox="0 0 20 16" width="20" xmlns="http://www.w3.org/2000/svg"><path d="m2.5 2.28406c-.34375 0-.625.27933-.625.62073v.85738l6.73828 5.49346c.8086.65952 1.96872.65952 2.77732 0l6.7344-5.49346v-.85738c0-.3414-.2812-.62073-.625-.62073zm-.625 3.88732v6.66512c0 .3414.28125.6207.625.6207h15c.3438 0 .625-.2793.625-.6207v-6.66512l-5.5469 4.52352c-1.5 1.2221-3.66013 1.2221-5.15622 0zm-1.875-3.26659c0-1.36948 1.12109-2.482915 2.5-2.482915h15c1.3789 0 2.5 1.113435 2.5 2.482915v9.93171c0 1.3694-1.1211 2.4829-2.5 2.4829h-15c-1.37891 0-2.5-1.1135-2.5-2.4829z" fill="#4a4a4a"/></svg>

<svg width="20" height="16" viewBox="0 0 20 16" fill="none" xmlns="http://www.w3.org/2000/svg">
<path d="M2.5 2.28406C2.15625 2.28406 1.875 2.56339 1.875 2.90479V3.76217L8.61328 9.25563C9.42188 9.91515 10.582 9.91515 11.3906 9.25563L18.125 3.76217V2.90479C18.125 2.56339 17.8438 2.28406 17.5 2.28406H2.5ZM1.875 6.17138V12.8365C1.875 13.1779 2.15625 13.4572 2.5 13.4572H17.5C17.8438 13.4572 18.125 13.1779 18.125 12.8365V6.17138L12.5781 10.6949C11.0781 11.917 8.91797 11.917 7.42188 10.6949L1.875 6.17138ZM0 2.90479C0 1.53531 1.12109 0.421875 2.5 0.421875H17.5C18.8789 0.421875 20 1.53531 20 2.90479V12.8365C20 14.2059 18.8789 15.3194 17.5 15.3194H2.5C1.12109 15.3194 0 14.2059 0 12.8365V2.90479Z" fill="#4A4A4A"/>
</svg>
